X: 315
T:Murray River Jig
R:jig
C: Graham Townsend
M:6/8
L:1/8
K:A
u (A/B/)|vc2c cBA|E3 E2 A/B/|c2c dcB|F3 F2 B/c/|d2d dcB|
g3 g2f|[1 fee e^de|fed c2:|[2 efe dcB|A3 !fine!A2||
|: E/D/|CA,A, A,CE|D=G,G, G,2B,|A,CE AGA|BEE E2D|
CA,A, A,CE|D=G,G, G,2F|EAA GAB|cAA A2:|
